icon/pk/coordinate-system.svg

<svg width="48" height="48" fill="none" xmlns="http://www.w3.org/2000/svg"><path d="m24 12 14 8v16l-14 8-14-8V20l14-8Z" fill="#2F88FF" stroke="#000" stroke-width="4" stroke-linejoin="round"/><path d="M24 6v6" stroke="#000" stroke-width="4" stroke-linecap="round" stroke-linejoin="round"/><path d="m10 20 14 8 14-8" stroke="#fff" stroke-width="4" stroke-linecap="round" stroke-linejoin="round"/><path d="m38 36 6 3M4 39l6-3" stroke="#000" stroke-width="4" stroke-linecap="round" stroke-linejoin="round"/><path d="M24 28v16" stroke="#fff" stroke-width="4" stroke-linecap="round" stroke-linejoin="round"/><path d="m31 16 7 4v8M17 16l-7 4v8m7 12 7 4 7-4" stroke="#000" stroke-width="4" stroke-linejoin="round"/></svg>

<svg viewBox="0 0 48 48" fill="none" xmlns="http://www.w3.org/2000/svg" height="1em" width="1em">
  <path d="M24 12L38 20V36L24 44L10 36V20L24 12Z" fill="#2F88FF" stroke="black" stroke-width="4" stroke-linejoin="round"/>
  <path d="M24 6V12" stroke="black" stroke-width="4" stroke-linecap="round" stroke-linejoin="round"/>
  <path d="M10 20L24 28L38 20" stroke="white" stroke-width="4" stroke-linecap="round" stroke-linejoin="round"/>
  <path d="M38 36L44 39" stroke="black" stroke-width="4" stroke-linecap="round" stroke-linejoin="round"/>
  <path d="M4 39L10 36" stroke="black" stroke-width="4" stroke-linecap="round" stroke-linejoin="round"/>
  <path d="M24 28V44" stroke="white" stroke-width="4" stroke-linecap="round" stroke-linejoin="round"/>
  <path d="M31 16L38 20V28M17 16L10 20V28M17 40L24 44L31 40" stroke="black" stroke-width="4" stroke-linejoin="round"/>
</svg>
